; HEADER_BLOCK_START
; generated by OrcaSlicer 2.1.1 on 2025-10-22 at 11:14:52
; total layer number: 19
; filament_density: 1.24
; filament_diameter: 1.75
; max_z_height: 3.08
; HEADER_BLOCK_END

; THUMBNAIL_BLOCK_START

;
; THUMBNAIL_BLOCK_END

; THUMBNAIL_BLOCK_START

;
; THUMBNAIL_BLOCK_END

; external perimeters extrusion width = 0.45mm
; perimeters extrusion width = 0.45mm
; infill extrusion width = 0.45mm
; solid infill extrusion width = 0.45mm
; top infill extrusion width = 0.40mm
; first layer extrusion width = 0.42mm

; EXECUTABLE_BLOCK_START
M73 P0 R227
M201 X500 Y500 Z100 E5000
M203 X500 Y500 Z10 E60
M204 P500 R1000 T500
M205 X8.00 Y8.00 Z0.40 E5.00 ; sets the jerk limits, mm/sec
;TYPE:Custom
G90 ; use absolute coordinates
M83 ; extruder relative mode
M104 S150 ; set temporary nozzle temp to prevent oozing during homing
M140 S60 ; set final bed temp
G4 S30 ; allow partial nozzle warmup
G28 ; home all axis and restore leveling
G1 Z50 F240
G1 X2.0 Y10 F3000
M104 S220 ; set final nozzle temp
M190 S60 ; wait for bed temp to stabilize
M109 S220 ; wait for nozzle temp to stabilize
M73 P0 R226
G1 Z0.28 F240
G92 E0
G1 X2.0 Y140 E10 F1500 ; prime the nozzle
G1 X2.3 Y140 F5000
G92 E0
G1 X2.3 Y10 E10 F1200 ; prime the nozzle
G92 E0
G90
G21
M83 ; use relative distances for extrusion
; filament start gcode
M106 S0
;LAYER_CHANGE
;Z:0.2
;HEIGHT:0.2
;BEFORE_LAYER_CHANGE
;0.2
G92 E0

G1 E-.8 F1800
;_SET_FAN_SPEED_CHANGING_LAYER
G1 Z.4 F9000
G1 X55.493 Y54.55
G1 Z.4
G1 Z.2
G1 E.8 F1800
;TYPE:Skirt
;WIDTH:0.42
G1 F3000
G1 X57.981 Y52.209 E.10498
G1 X61.058 Y49.581 E.12434
G1 X64.27 Y47.116 E.12441
G1 X67.095 Y45.155 E.10565
G1 X70.526 Y43.011 E.12434
G1 X74.086 Y41.037 E.12508
G1 X77.15 Y39.526 E.10497
G1 X80.862 Y37.912 E.12435
G1 X84.056 Y36.702 E.10498
G1 X87.905 Y35.451 E.12434
G1 X91.837 Y34.397 E.12508
G1 X95.176 Y33.672 E.10498
G1 X99.167 Y33.004 E.12435
G1 X102.56 Y32.603 E.10498
G1 X106.596 Y32.32 E.12435
G1 X110.605 Y32.248 E.1232
G1 X114.081 Y32.353 E.10685
G1 X118.115 Y32.671 E.12434
G1 X122.13 Y33.198 E.12442
G1 X125.513 Y33.809 E.10564
G1 X129.456 Y34.72 E.12435
G1 X133.37 Y35.841 E.12508
G1 X136.605 Y36.939 E.10498
G1 X140.37 Y38.422 E.12434
G1 X144.055 Y40.1 E.12441
G1 X147.112 Y41.674 E.10565
G1 X150.616 Y43.697 E.12435
G1 X153.49 Y45.546 E.10498
G1 X156.803 Y47.91 E.12509
G1 X159.97 Y50.429 E.12434
G1 X162.539 Y52.682 E.10497
G1 X165.45 Y55.493 E.12434
G1 X167.791 Y57.981 E.10498
G1 X170.419 Y61.058 E.12435
G1 X172.51 Y63.76 E.10498
G1 X174.845 Y67.095 E.12508
G1 X176.989 Y70.526 E.12434
G1 X178.963 Y74.086 E.12508
G1 X180.474 Y77.15 E.10497
G1 X182.088 Y80.862 E.12435
G1 X183.298 Y84.056 E.10498
G1 X184.556 Y87.928 E.12508
G1 X185.603 Y91.837 E.12434
G1 X186.328 Y95.176 E.10498
G1 X186.999 Y99.191 E.12509
G1 X187.457 Y103.211 E.12434
G1 X187.681 Y106.62 E.10498
G1 X187.751 Y110.667 E.12434
G1 X187.61 Y114.734 E.12506
G1 X187.329 Y118.115 E.10426
G1 X186.799 Y122.151 E.12508
G1 X186.191 Y125.513 E.10498
G1 X185.28 Y129.456 E.12435
G1 X184.159 Y133.37 E.12508
G1 X183.061 Y136.605 E.10498
G1 X181.578 Y140.37 E.12434
G1 X179.9 Y144.055 E.12441
G1 X178.326 Y147.112 E.10565
G1 X176.303 Y150.616 E.12435
G1 X174.454 Y153.49 E.10497
G1 X172.09 Y156.803 E.12509
G1 X169.571 Y159.97 E.12434
G1 X167.318 Y162.539 E.10498
G1 X164.507 Y165.45 E.12434
G1 X162.019 Y167.791 E.10498
G1 X158.923 Y170.434 E.12509
G1 X155.712 Y172.897 E.12434
G1 X152.905 Y174.845 E.10498
G1 X149.474 Y176.989 E.12434
G1 X146.493 Y178.658 E.10498
G1 X142.85 Y180.474 E.12508
G1 X139.138 Y182.088 E.12435
G1 X135.326 Y183.514 E.12506
G1 X132.072 Y184.556 E.105
G1 X128.163 Y185.603 E.12434
G1 X124.824 Y186.328 E.10498
G1 X120.833 Y186.996 E.12435
G1 X117.44 Y187.397 E.10498
G1 X113.379 Y187.681 E.12509
G1 X109.334 Y187.751 E.12432
G1 X105.919 Y187.647 E.105
G1 X101.884 Y187.329 E.12434
G1 X98.487 Y186.897 E.10525
G1 X94.487 Y186.191 E.12481
G1 X90.544 Y185.281 E.12434
G1 X87.255 Y184.353 E.10498
G1 X83.395 Y183.061 E.12508
G1 X79.63 Y181.578 E.12434
G1 X76.515 Y180.175 E.10498
G1 X72.91 Y178.337 E.12434
G1 X69.943 Y176.642 E.10498
G1 X66.51 Y174.454 E.12508
G1 X63.197 Y172.09 E.12508
G1 X60.03 Y169.571 E.12434
G1 X57.461 Y167.318 E.10498
G1 X54.55 Y164.507 E.12435
G1 X52.209 Y162.019 E.10497
G1 X49.566 Y158.923 E.12509
G1 X47.103 Y155.712 E.12434
G1 X45.155 Y152.905 E.10498
G1 X43.011 Y149.474 E.12434
G1 X41.342 Y146.493 E.10498
G1 X39.536 Y142.871 E.12434
G1 X37.912 Y139.139 E.12506
G1 X36.486 Y135.326 E.12508
G1 X35.444 Y132.072 E.105
G1 X34.397 Y128.163 E.12434
G1 X33.672 Y124.824 E.10498
G1 X33.004 Y120.833 E.12435
G1 X32.603 Y117.44 E.10498
G1 X32.32 Y113.404 E.12435
G1 X32.249 Y109.334 E.12506
G1 X32.353 Y105.919 E.105
G1 X32.671 Y101.884 E.12434
G1 X33.103 Y98.487 E.10525
G1 X33.809 Y94.487 E.12481
G1 X34.719 Y90.544 E.12434
G1 X35.647 Y87.255 E.10498
G1 X36.931 Y83.418 E.12434
G1 X38.422 Y79.63 E.12508
G1 X39.825 Y76.515 E.10498
G1 X41.663 Y72.91 E.12434
G1 X43.358 Y69.943 E.10498
G1 X45.546 Y66.51 E.12508
G1 X47.91 Y63.197 E.12508
G1 X50.429 Y60.03 E.12434
G1 X52.682 Y57.461 E.10498
G1 X55.465 Y54.579 E.12312
G1 X55.736 Y54.841 F9000
G1 F3000
G1 X55.758 Y54.818 E.00098
G1 X58.232 Y52.491 E.10437
G1 X61.313 Y49.86 E.12448
G1 X64.493 Y47.42 E.12317
G1 X67.301 Y45.471 E.10504
G1 X70.737 Y43.324 E.12447
G1 X74.262 Y41.371 E.12384
G1 X77.308 Y39.868 E.10437
G1 X81.005 Y38.261 E.12384
G1 X84.181 Y37.058 E.10437
G1 X88.014 Y35.812 E.12384
G1 X91.927 Y34.763 E.12447
G1 X95.246 Y34.043 E.10437
G1 X99.221 Y33.377 E.12384
G1 X102.594 Y32.978 E.10437
G1 X106.615 Y32.697 E.12384
G1 X110.604 Y32.626 E.1226
G1 X114.06 Y32.73 E.10625
G1 X118.078 Y33.046 E.12384
G1 X122.073 Y33.571 E.12381
G1 X125.437 Y34.178 E.10504
G1 X129.384 Y35.09 E.12448
G1 X133.258 Y36.201 E.12384
G1 X136.474 Y37.293 E.10437
G1 X140.224 Y38.77 E.12383
G1 X143.891 Y40.44 E.12381
G1 X146.93 Y42.005 E.10504
G1 X150.421 Y44.02 E.12384
G1 X153.277 Y45.857 E.10437
G1 X156.558 Y48.198 E.12384
G1 X159.729 Y50.719 E.12448
G1 X162.283 Y52.959 E.10437
G1 X165.182 Y55.758 E.12384
G1 X167.509 Y58.232 E.10437
G1 X170.127 Y61.297 E.12384
G1 X172.206 Y63.983 E.10437
G1 X174.529 Y67.301 E.12448
G1 X176.676 Y70.737 E.12447
G1 X178.629 Y74.262 E.12384
G1 X180.132 Y77.308 E.10437
G1 X181.739 Y81.005 E.12384
G1 X182.942 Y84.181 E.10437
G1 X184.194 Y88.034 E.12448
G1 X185.237 Y91.926 E.12383
G1 X185.957 Y95.246 E.10437
G1 X186.623 Y99.221 E.12384
G1 X187.082 Y103.246 E.12447
G1 X187.304 Y106.635 E.10438
G1 X187.374 Y110.665 E.12384
G1 X187.233 Y114.713 E.12445
G1 X186.952 Y118.098 E.10439
G1 X186.426 Y122.094 E.12384
G1 X185.822 Y125.437 E.10438
G1 X184.91 Y129.384 E.12448
G1 X183.799 Y133.258 E.12384
G1 X182.707 Y136.474 E.10437
G1 X181.23 Y140.224 E.12384
G1 X179.56 Y143.891 E.12381
G1 X177.995 Y146.93 E.10504
G1 X175.98 Y150.421 E.12384
G1 X174.143 Y153.277 E.10437
G1 X171.79 Y156.575 E.12448
G1 X169.281 Y159.729 E.12384
G1 X167.041 Y162.283 E.10437
G1 X164.242 Y165.182 E.12384
G1 X161.768 Y167.509 E.10437
G1 X158.703 Y170.127 E.12384
G1 X156.017 Y172.206 E.10437
G1 X152.699 Y174.529 E.12448
G1 X149.281 Y176.665 E.12384
G1 X146.317 Y178.325 E.10437
G1 X142.71 Y180.123 E.12384
G1 X138.996 Y181.739 E.12448
G1 X135.202 Y183.158 E.12445
G1 X131.966 Y184.194 E.10439
G1 X128.074 Y185.237 E.12384
G1 X124.754 Y185.957 E.10437
G1 X120.779 Y186.623 E.12384
G1 X117.406 Y187.022 E.10437
G1 X113.365 Y187.304 E.12448
G1 X109.336 Y187.374 E.12382
G1 X105.94 Y187.27 E.10439
G1 X101.922 Y186.954 E.12384
G1 X98.545 Y186.524 E.1046
G1 X94.563 Y185.822 E.12424
G1 X90.636 Y184.915 E.12384
G1 X87.367 Y183.993 E.10437
G1 X83.545 Y182.714 E.12384
G1 X79.776 Y181.23 E.12447
G1 X76.679 Y179.835 E.10437
G1 X73.07 Y177.995 E.12448
G1 X69.579 Y175.98 E.12384
G1 X66.723 Y174.143 E.10437
G1 X63.442 Y171.802 E.12384
G1 X60.271 Y169.281 E.12448
G1 X57.717 Y167.041 E.10437
G1 X54.818 Y164.242 E.12384
G1 X52.491 Y161.768 E.10437
G1 X49.873 Y158.703 E.12384
G1 X47.407 Y155.49 E.12447
G1 X45.471 Y152.699 E.10437
G1 X43.335 Y149.281 E.12384
G1 X41.675 Y146.317 E.10437
G1 X39.868 Y142.692 E.12447
G1 X38.261 Y138.996 E.12382
G1 X36.842 Y135.202 E.12447
G1 X35.806 Y131.966 E.10439
G1 X34.763 Y128.073 E.12384
G1 X34.043 Y124.754 E.10437
G1 X33.377 Y120.779 E.12384
G1 X32.978 Y117.406 E.10437
G1 X32.697 Y113.385 E.12384
G1 X32.626 Y109.336 E.12446
G1 X32.73 Y105.94 E.10439
G1 X33.048 Y101.902 E.12447
G1 X33.476 Y98.545 E.10397
G1 X34.178 Y94.563 E.12424
G1 X35.085 Y90.636 E.12384
G1 X36.007 Y87.367 E.10437
G1 X37.286 Y83.545 E.12384
G1 X38.77 Y79.776 E.12447
G1 X40.165 Y76.679 E.10437
G1 X42.005 Y73.07 E.12448
G1 X44.02 Y69.579 E.12384
G1 X45.857 Y66.723 E.10437
G1 X48.21 Y63.425 E.12448
G1 X50.719 Y60.271 E.12384
G1 X52.959 Y57.717 E.10437
G1 X55.708 Y54.87 E.12164
; printing object HAHAHAHAHAHA.STL id:0 copy 0
G1 E-.2 F1800
;WIPE_START
G1 F3000
G1 X55.758 Y54.818 E-.04307
G1 X56.434 Y54.182 E-.55693
;WIPE_END
G1 Z.6 F9000
G1 X58.05 Y163.071 Z.6
G1 Z.2
G1 E.8 F1800
;TYPE:Inner wall
;WIDTH:0.513737
G1 F900
G1 X58.032 Y163.05 E.00105
;WIDTH:0.560605
G1 X57.861 Y162.852 E.01103
G1 X57.29 Y162.289 E.03385
;WIDTH:0.594961
G1 X56.864 Y161.822 E.0284
G1 X56.788 Y161.771 E.00415
;WIDTH:0.555314
G1 X56.711 Y161.72 E.00385
;WIDTH:0.515666
G1 X56.496 Y161.53 E.01105
;WIDTH:0.467833
G1 X56.281 Y161.34 E.00993
;WIDTH:0.419999
G1 X55.651 Y160.681 E.028
G1 X54.343 Y159.241 E.05978
G1 X53.072 Y157.766 E.05982
G1 X52.249 Y156.768 E.03978
G1 X51.044 Y155.239 E.05982
G1 X49.88 Y153.68 E.05978
G1 X48.756 Y152.09 E.05982
G1 X48.032 Y151.017 E.03977
G1 X46.978 Y149.379 E.05986
G1 X46.302 Y148.275 E.03978
G1 X45.321 Y146.593 E.05982
G1 X44.386 Y144.888 E.05978
G1 X43.495 Y143.158 E.05977
G1 X42.65 Y141.406 E.05978
G1 X41.851 Y139.632 E.05978
G1 X41.098 Y137.838 E.05978
G1 X40.393 Y136.025 E.05978
G1 X39.736 Y134.194 E.05978
G1 X39.133 Y132.366 E.05915
G1 X38.748 Y131.107 E.04045
G1 X38.219 Y129.233 E.05982
G1 X37.74 Y127.348 E.05977
G1 X37.311 Y125.451 E.05978
G1 X36.931 Y123.541 E.05981
G1 X36.678 Y122.092 E.04521
G1 X36.41 Y120.343 E.05438
G1 X36.165 Y118.413 E.05978
G1 X35.97 Y116.476 E.05982
G1 X35.868 Y115.185 E.03978
G1 X35.758 Y113.241 E.05982
G1 X35.698 Y111.28 E.06028
;WIDTH:0.466018
G1 X35.72 Y111.022 E.00894
;WIDTH:0.512036
G1 X35.742 Y110.764 E.00991
;WIDTH:0.558054
G1 X35.764 Y110.505 E.01088
G1 X35.756 Y109.708 E.03346
;WIDTH:0.591667
G1 X35.781 Y109.102 E.02714
G1 X35.764 Y109.012 E.00411
;WIDTH:0.552883
G1 X35.746 Y108.922 E.00382
;WIDTH:0.514098
G1 X35.729 Y108.622 E.01152
;WIDTH:0.467049
G1 X35.712 Y108.322 E.01037
;WIDTH:0.419999
G1 X35.732 Y107.407 E.02814
G1 X35.826 Y105.463 E.05978
G1 X35.97 Y103.523 E.05979
G1 X36.165 Y101.587 E.05977
G1 X36.41 Y99.657 E.05979
G1 X36.678 Y97.908 E.05438
G1 X36.931 Y96.459 E.04521
G1 X37.311 Y94.549 E.05981
G1 X37.741 Y92.651 E.05981
G1 X38.054 Y91.395 E.03978
G1 X38.566 Y89.517 E.05981
G1 X39.127 Y87.654 E.05978
G1 X39.736 Y85.805 E.05982
G1 X40.168 Y84.585 E.03978
G1 X40.858 Y82.764 E.05982
G1 X41.595 Y80.964 E.05978
G1 X42.379 Y79.182 E.05982
G1 X42.926 Y78.009 E.03977
G1 X43.787 Y76.263 E.05982
G1 X44.693 Y74.541 E.05978
G1 X45.643 Y72.844 E.05978
G1 X46.638 Y71.172 E.05978
G1 X47.676 Y69.526 E.05977
G1 X48.758 Y67.908 E.05982
G1 X49.5 Y66.847 E.03977
G1 X50.651 Y65.277 E.05982
G1 X51.842 Y63.739 E.05978
G1 X53.073 Y62.233 E.05977
G1 X54.343 Y60.759 E.05978
M73 P0 R225
G1 X55.651 Y59.319 E.05978
G1 X56.552 Y58.378 E.04003
;WIDTH:0.467578
G1 X56.744 Y58.213 E.00875
;WIDTH:0.515157
G1 X56.935 Y58.048 E.00973
;WIDTH:0.562735
G1 X57.127 Y57.884 E.01071
G1 X57.711 Y57.29 E.03527
;WIDTH:0.594845
G1 X58.177 Y56.865 E.02836
G1 X58.228 Y56.789 E.00415
;WIDTH:0.555233
G1 X58.28 Y56.712 E.00385
;WIDTH:0.51562
G1 X58.47 Y56.497 E.01107
;WIDTH:0.46781
G1 X58.66 Y56.281 E.00995
;WIDTH:0.419999
G1 X60.274 Y54.776 E.06782
G1 X61.738 Y53.492 E.05982
G1 X63.233 Y52.248 E.05978
G1 X64.761 Y51.044 E.05978
G1 X66.303 Y49.892 E.05915
G1 X67.375 Y49.127 E.04044
G1 X68.984 Y48.032 E.05982
G1 X70.62 Y46.979 E.05978
G1 X72.283 Y45.97 E.05977
G1 X73.972 Y45.005 E.05978
G1 X75.686 Y44.084 E.05978
G1 X77.423 Y43.208 E.05978
G1 X79.164 Y42.387 E.05915
G1 X80.367 Y41.851 E.04044
G1 X82.163 Y41.098 E.05986
G1 X83.367 Y40.623 E.03977
G1 X85.194 Y39.95 E.05982
G1 X87.036 Y39.324 E.05978
G1 X88.894 Y38.747 E.05978
G1 X90.766 Y38.219 E.05978
G1 X92.652 Y37.74 E.05977
G1 X94.551 Y37.311 E.05982
G1 X95.819 Y37.053 E.03977
G1 X97.735 Y36.706 E.05982
G1 X99.658 Y36.41 E.05978
G1 X101.589 Y36.165 E.05981
G1 X102.876 Y36.029 E.03978
G1 X104.816 Y35.868 E.05982
G1 X106.759 Y35.758 E.05978
G1 X108.724 Y35.698 E.06042
;WIDTH:0.465379
G1 X108.991 Y35.72 E.00922
;WIDTH:0.510758
G1 X109.258 Y35.741 E.01021
;WIDTH:0.556137
G1 X109.525 Y35.763 E.01121
G1 X110.123 Y35.754 E.02502
;WIDTH:0.573887
G1 X110.835 Y35.755 E.03079
;WIDTH:0.543367
G1 X111.046 Y35.743 E.0086
;WIDTH:0.512847
G1 X111.495 Y35.728 E.01721
;WIDTH:0.466423
G1 X111.944 Y35.713 E.01551
;WIDTH:0.419999
G1 X113.889 Y35.789 E.05981
G1 X115.83 Y35.916 E.05977
G1 X117.768 Y36.094 E.05978
G1 X119.7 Y36.323 E.05978
G1 X121.605 Y36.599 E.05915
G1 X122.903 Y36.816 E.04044
G1 X124.816 Y37.179 E.05982
G1 X126.717 Y37.592 E.05977
G1 X128.607 Y38.054 E.05978
G1 X130.483 Y38.566 E.05978
G1 X132.346 Y39.127 E.05978
G1 X134.195 Y39.736 E.05982
G1 X135.415 Y40.168 E.03977
G1 X137.236 Y40.858 E.05982
G1 X139.036 Y41.595 E.05977
G1 X140.817 Y42.378 E.05978
G1 X142.558 Y43.199 E.05915
G1 X143.736 Y43.786 E.04045
G1 X145.459 Y44.693 E.05981
G1 X147.139 Y45.633 E.05915
G1 X148.273 Y46.301 E.04044
G1 X149.928 Y47.325 E.05982
G1 X151.555 Y48.392 E.05978
G1 X153.154 Y49.501 E.05978
G1 X154.723 Y50.651 E.05978
G1 X156.261 Y51.842 E.05978
G1 X157.767 Y53.073 E.05978
G1 X159.241 Y54.343 E.05978
G1 X160.681 Y55.651 E.05978
G1 X161.6 Y56.531 E.03909
;WIDTH:0.467536
G1 X161.772 Y56.729 E.0091
;WIDTH:0.515073
G1 X161.944 Y56.928 E.01011
;WIDTH:0.562609
G1 X162.116 Y57.127 E.01113
G1 X162.584 Y57.582 E.02763
;WIDTH:0.576621
G1 X162.945 Y57.965 E.0229
G1 X163.281 Y58.286 E.02022
;WIDTH:0.535094
G1 X163.427 Y58.411 E.00769
;WIDTH:0.496729
G1 X163.573 Y58.536 E.00709
;WIDTH:0.458364
G1 X163.719 Y58.66 E.00649
;WIDTH:0.419999
G1 X165.224 Y60.274 E.06782
G1 X166.508 Y61.738 E.05982
G1 X167.753 Y63.234 E.05981
G1 X168.559 Y64.247 E.03977
G1 X169.737 Y65.797 E.05982
G1 X170.873 Y67.376 E.05977
G1 X171.969 Y68.984 E.05979
G1 X173.021 Y70.62 E.05978
G1 X174.03 Y72.283 E.05977
G1 X174.996 Y73.972 E.05978
G1 X175.916 Y75.686 E.05978
G1 X176.792 Y77.423 E.05978
G1 X177.613 Y79.164 E.05915
G1 X178.149 Y80.367 E.04044
G1 X178.902 Y82.162 E.05982
G1 X179.607 Y83.975 E.05977
G1 X180.264 Y85.806 E.05978
G1 X180.873 Y87.654 E.05978
G1 X181.435 Y89.518 E.05982
G1 X181.78 Y90.765 E.03977
G1 X182.26 Y92.652 E.05981
G1 X182.689 Y94.549 E.05978
G1 X183.069 Y96.458 E.05978
G1 X183.398 Y98.376 E.05981
G1 X183.59 Y99.656 E.03978
G1 X183.835 Y101.587 E.05981
G1 X184.03 Y103.523 E.05977
G1 X184.174 Y105.463 E.05979
G1 X184.268 Y107.407 E.05978
G1 X184.296 Y108.718 E.04029
;WIDTH:0.45759
G1 X184.282 Y108.92 E.00685
;WIDTH:0.49518
G1 X184.268 Y109.122 E.00747
;WIDTH:0.53277
G1 X184.255 Y109.324 E.00809
;WIDTH:0.57036
G1 X184.241 Y109.526 E.00871
;WIDTH:0.558561
G1 X184.245 Y110.29 E.03208
;WIDTH:0.549626
G1 X184.244 Y111.047 E.03125
;WIDTH:0.535157
G1 X184.258 Y111.255 E.0084
;WIDTH:0.496771
G1 X184.273 Y111.464 E.00774
;WIDTH:0.458385
G1 X184.288 Y111.673 E.00709
;WIDTH:0.419999
G1 X184.268 Y112.593 E.02828
G1 X184.174 Y114.537 E.05978
G1 X184.03 Y116.477 E.05979
G1 X183.837 Y118.392 E.05914
G1 X183.677 Y119.699 E.04044
G1 X183.398 Y121.625 E.05981
G1 X183.069 Y123.542 E.05978
G1 X182.689 Y125.451 E.05978
G1 X182.26 Y127.348 E.05978
G1 X181.78 Y129.235 E.05982
G1 X181.435 Y130.482 E.03977
G1 X180.873 Y132.346 E.05982
G1 X180.271 Y134.175 E.05915
G1 X179.832 Y135.415 E.04044
G1 X179.142 Y137.236 E.05982
G1 X178.405 Y139.036 E.05977
G1 X177.622 Y140.817 E.05978
G1 X176.801 Y142.558 E.05915
G1 X176.214 Y143.736 E.04045
G1 X175.307 Y145.459 E.05981
G1 X174.367 Y147.139 E.05915
G1 X173.699 Y148.273 E.04044
